大富翁/house1.svg

<svg height="30" style="fill:theColor;" stroke-miterlimit="10" width="30" viewBox="0 0 30 30" xmlns="http://www.w3.org/2000/svg" clip-rule="evenodd" stroke-linecap="round" stroke-linejoin="round"><path d="M7.5 17.25h6v10.5h-6v-10.5zm22.5-4.5H15L7.5 2.25h15l7.5 10.5z"/><path d="M12 2.25H7.5L0 12.75h4.5L12 2.25zm4.5 15h6v6h-6v-6z"/><path d="M27 12.18v15.57H3V12.18" fill="none" stroke="theColor" stroke-linecap="butt" stroke-linejoin="miter" stroke-width="2"/></svg>

<svg height="30.0px" stroke-miterlimit="10" style="fill-rule:nonzero;clip-rule:evenodd;stroke-linecap:round;stroke-linejoin:round;" version="1.1" viewBox="0 0 30 30" width="30.0px" xml:space="preserve" xmlns="http://www.w3.org/2000/svg" xmlns:xlink="http://www.w3.org/1999/xlink">
<defs/>
<path d="M7.5 17.25L13.5 17.25L13.5 27.75L7.5 27.75L7.5 17.25ZM30 12.75L15 12.75L7.5 2.25L22.5 2.25L30 12.75Z" fill="#000000" fill-rule="nonzero" opacity="1" stroke="none"/>
<path d="M12 2.25L7.5 2.25L0 12.75L4.5 12.75L12 2.25ZM16.5 17.25L22.5 17.25L22.5 23.25L16.5 23.25L16.5 17.25Z" fill="#000000" fill-rule="nonzero" opacity="1" stroke="none"/>
<path d="M27 12.18L27 27.75L3 27.75L3 12.18" fill="none" opacity="1" stroke="#000000" stroke-linecap="butt" stroke-linejoin="miter" stroke-width="2"/>
</svg>
